!!!SOCIAL_FUNCTION:	songs connected with ceremonies
!!!PDT:	1929
!!!OTL: No_112_You_Make_Me_Drink_Red_Water.krn
!!!REG: Southwest
!!!LANG: Non-Tone
!!!LING_GROUP: Uto-Aztecan
**kern
*staff1
*clefF4
*k[f#c#g#d#]
*M3/4
4E\
=1
4c#\
4c#\
4c#\
=2||
*M2/4
4B\
4B\
=3||
*M3/4
4.B\
8G#\
4B\
=4||
*M2/4
2G#\
=5!|:
4r
4G#\
=6||
*M3/4
4B\
8B\L
8c#\J
8.B\L
16G#\Jk
=7
4G#\
16G#\LK
8.G#\J
4F#\
=8||
*M2/4
4E\
8.F#\L
16E\Jk
=9||
*M3/4
2E\
8BB/
8r
=10
4Gn\
4G\
4G\
=11
4F#\
4E\
8F#\L
8E\J
=12
2E\
8BB/
8r
=13||
*M2/4
4F#\
8E\L
8E\J
=14
4E\
8F#\L
8E\J
=15||
*M3/4
4E\
4E\
4E\
=16||
*M2/4
4E\
8BB/
8r
=17
4E\
8F#\L
8E\J
=18
4E\
4E\
=19||
*M3/4
4E\
4BB/
8F#\L
8E\J
=20||
*M2/4
4E\
4E\
=21||
*M3/4
4.E\
8C#/
4E\
=22
2.E\
==:|!
*-
